X: 2148
T:Lomka po Lomka (Kasapsko Horo)
O:Bulgaria
M:2/4
A:North Bulgaria
K:Dm
D2D2 E2F2|~E2D2 A2A2|D2D2 E2F2|~E2D2 A4|\
D2D2 E2F2|G2A2 B2A2|G2F2 E2F2|D4 D4:|
A4       (cB)(BA)|(AG)(GA) F2F2|\
(cB)(BA) (AG)(GA)|.F4 .c4|\
A4       (cB)(BA)|(AG)(GA) F2F2|\
(AG)(GF) (FE)(ED)|.D4 .D4||
